resources/haticons/SVG/add_alarm.svg

<!-- Generated by IcoMoon.io -->
<svg version="1.1" xmlns="http://www.w3.org/2000/svg" width="24" height="24" viewBox="0 0 24 24">
<title>add_alarm</title>
<path d="M12.984 9v3h3v2.016h-3v3h-1.969v-3h-3v-2.016h3v-3h1.969zM12 20.016q2.906 0 4.945-2.063t2.039-4.969-2.039-4.945-4.945-2.039-4.945 2.039-2.039 4.945 2.039 4.969 4.945 2.063zM12 3.984q3.75 0 6.375 2.648t2.625 6.352-2.625 6.352-6.375 2.648-6.375-2.648-2.625-6.352 2.625-6.352 6.375-2.648zM21.984 5.719l-1.266 1.547-4.594-3.891 1.266-1.5zM7.875 3.375l-4.594 3.844-1.266-1.5 4.594-3.844z"></path>
</svg>

<svg xmlns="http://www.w3.org/2000/svg" width="24" height="24"><path d="M12.984 9v3h3v2.016h-3v3h-1.969v-3h-3V12h3V9h1.969zM12 20.016q2.906 0 4.945-2.063t2.039-4.969-2.039-4.945T12 6 7.055 8.039t-2.039 4.945 2.039 4.969T12 20.016zm0-16.032q3.75 0 6.375 2.648T21 12.984t-2.625 6.352T12 21.984t-6.375-2.648T3 12.984t2.625-6.352T12 3.984zm9.984 1.735l-1.266 1.547-4.594-3.891 1.266-1.5zM7.875 3.375L3.281 7.219l-1.266-1.5 4.594-3.844z"/></svg>
